packages/core/src/svgs/tokens/mono/BERRY.svg

<svg width="24" height="24" viewBox="0 0 24 24" fill="none" xmlns="http://www.w3.org/2000/svg">
<path d="M19.4188 21.9966C16.5985 21.8543 14.3761 19.656 14.3761 17.0157C14.3761 16.8426 14.4874 16.6695 14.6362 16.5657C15.6011 16.012 16.2325 15.0426 16.2325 13.9001C16.2325 12.1688 14.7474 10.7502 12.8913 10.7502H9.66064C8.88122 10.7502 8.24999 11.3389 8.24999 12.1001V22H4.72061C3.23749 22 2 20.8001 2 19.2825V9.57823C2 8.66074 2.45937 7.81386 3.20124 7.32011L10.4812 2.45012C10.9336 2.1565 11.4612 2.00024 12.0005 2.00024C12.5398 2.00024 13.0676 2.1565 13.52 2.45012L20.7994 7.32011C21.1696 7.56887 21.4728 7.90506 21.6822 8.29891C21.8916 8.69276 22.0007 9.13217 22 9.57823V19.247C22 20.7189 20.8715 21.9237 19.4188 21.9966Z" fill="white"/>
</svg>

<svg xmlns="http://www.w3.org/2000/svg" width="24" height="24" fill="none" viewBox="0 0 24 24">
    <path fill="#fff" d="M19.419 21.997c-2.82-.143-5.043-2.341-5.043-4.981 0-.173.111-.346.26-.45.965-.554 1.597-1.523 1.597-2.666 0-1.731-1.486-3.15-3.342-3.15h-3.23c-.78 0-1.411.589-1.411 1.35V22H4.72A2.72 2.72 0 0 1 2 19.282V9.578c0-.917.46-1.764 1.201-2.258l7.28-4.87a2.79 2.79 0 0 1 3.039 0l7.28 4.87A2.72 2.72 0 0 1 22 9.578v9.669c0 1.472-1.128 2.677-2.581 2.75"/>
</svg>
